icon-themes/sifr_svg/cmd/lc_incrementsublevels.svg

<svg viewBox="0 0 24 24" xmlns="http://www.w3.org/2000/svg"><path d="m2 2v2h20v-2zm0 4v2h13v-2zm19 0c-.354218 0-.55232.0903-.75.28125l-4.25 3.939453v1.615235l4.25 3.882812c.19768.19095.44055.28125.75.28125h.587891.412109v-1c0-.484318-.297796-.669482-.683594-1l-3.316406-3 3.316406-3c.345695-.3392438.683594-.5442579.683594-1v-1h-.412109zm-19 10v2h13v-2zm0 4v2h13v-2z" fill="#555753"/></svg>

<svg xmlns="http://www.w3.org/2000/svg" viewBox="0 0 24 24">
  <path
     inkscape:connector-curvature="0"
     style="fill:#555753"
     d="M 2,2 V 4 H 22 V 2 Z M 2,6 V 8 H 15 V 6 Z M 21,6 C 20.645782,6 20.44768,6.0903 20.25,6.28125 L 16,10.220703 v 1.615235 l 4.25,3.882812 C 20.44768,15.9097 20.69055,16 21,16 H 21.587891 22 v -1 c 0,-0.484318 -0.297796,-0.669482 -0.683594,-1 L 18,11 21.316406,8 C 21.662101,7.6607562 22,7.4557421 22,7 V 6 H 21.587891 Z M 2,16 v 2 h 13 v -2 z m 0,4 v 2 h 13 v -2 z"
     />
</svg>
